X:1
T:Empty Barrel, The
C:Pierre Commes
R:Jig
I:Jig
Q: 3/8=120
V:1
M:6/8
L:1/8
K:Bm
A \
|  BDF BDF | BAB dcd | fcA fcA | gfg edc \
|  BDF BDF | BAB dcd | fcA edc |1 Bdc B2 :|2 Bdc B2 d ||
|: geB Geg | fdB FDF | ece ecG | dBF dBf geB Geg \
|  fdB Fed | ~f3 edc |1 BAc B2 d :|2 BAc B2 |]
